icons/lines/dislike.svg

<svg xmlns="http://www.w3.org/2000/svg" width="24" height="24" viewBox="0 0 24 24" fill="none" stroke="currentColor" stroke-width="2" stroke-linecap="round" stroke-linejoin="round" >
  <path d="M16.5197 5.65002L13.4197 3.25002C13.0197 2.85002 12.1197 2.65002 11.5197 2.65002H7.71973C6.51973 2.65002 5.21973 3.55002 4.91973 4.75002L2.51973 12.05C2.01973 13.45 2.91973 14.65 4.41973 14.65H8.41973C9.01973 14.65 9.51973 15.15 9.41973 15.85L8.91973 19.05C8.71973 19.95 9.31973 20.95 10.2197 21.25C11.0197 21.55 12.0197 21.15 12.4197 20.55L16.5197 14.45" stroke-miterlimit="10"/>
  <path d="M21.6201 5.65V15.45C21.6201 16.85 21.0201 17.35 19.6201 17.35H18.6201C17.2201 17.35 16.6201 16.85 16.6201 15.45V5.65C16.6201 4.25 17.2201 3.75 18.6201 3.75H19.6201C21.0201 3.75 21.6201 4.25 21.6201 5.65Z"/>
  </svg>

<svg xmlns="http://www.w3.org/2000/svg" width="24" height="24" viewBox="0 0 24 24" fill="none" stroke="currentColor" stroke-width="2" stroke-linecap="round" stroke-linejoin="round">
  <path d="m16.52 5.65-3.1-2.4c-.4-.4-1.3-.6-1.9-.6h-3.8c-1.2 0-2.5.9-2.8 2.1l-2.4 7.3c-.5 1.4.4 2.6 1.9 2.6h4a1 1 0 0 1 1 1.2l-.5 3.2c-.2.9.4 1.9 1.3 2.2.8.3 1.8-.1 2.2-.7l4.1-6.1" />
  <path d="M21.62 15.45c0 1.4-.6 1.9-2 1.9h-1c-1.4 0-2-.5-2-1.9v-9.8c0-1.4.6-1.9 2-1.9h1c1.4 0 2 .5 2 1.9z" />
</svg>
